!!!PDT:	1923
!!!LANG: Non-Tone
!!!LING_GROUP: Siouan
!!!REG: Dakotas
!!!COM: Anon.
!!!OTL: He Never Will Return
!!!ODT: <1918//
!!!MPN: Wopite [Scattered Corn, Mrs. Holding Eagle]
!!!MLC: Fort Berthold Reservation, North Dakota, United States of America
!! Song was recorded during either the summer of 1912, 1915, or 1918.
!!!AGN: monody
!!!SOCIAL_FUNCTION: Mandan Women's Society
!!!AMT: irregular
!!!RWG: Transcribed pitches, durations, and meters are only approximate.
!! Drum Tempo: MM76
!! Drum-rhythm: (4 4 4 4)
**kern
*ICvox
*Ifemale
*clefG2
*k[f#c#g#d#]
*M3/4
*MM76
=1
8g#
8g#
8b
16b
16g#
4G#
=2
8g#
8b
16b
16g#
16g#
16f#
16f#
16e
8e
=3
16g#
16f#
16f#
16e
16g#
16f#
8f#
16e
16c#
8B
=4
4e
8e
8f#
8e
16d#
16B
*M2/4
=5
16e
8.B
8B
8B
*M3/4
=6
4B
2B
=7
8g#
8g#
8b
(16b
16g#)
4g#
=8
8g#
8b
16b
16g#
16g#
16f#
16f#
16f#
16e
8e
=9
(16g#
16f#
16f#
16e)
(16g#
16f#
8f#)
(16e
16c#)
8B
=10
4e
(8e
8f#)
8e
(16d#
16B)
*M2/4
=11
16e
8.B
8B
8B
*M3/4
=12
2.B
==
*-
!!!CNT: Mandan
!!!TXO: Mandan
!!!OCY: United States
!!!OCL: Frances Densmore
!!!YOR: Frances Densmore, "Mandan and Hidatsa Music",
!!!YOR: Bulletin 80, page 95, No. 37
!!!PPR: Smithsonian Institution, Bureau of American Ethnology
!!!PPR: Government Printing Office
!!!PDT: 1923
!!!PPP: Washington, DC, United States of America
!!!YEC: Electronic Copyright 2000 David Huron
!!!YER: August 2000
!!!YEN: United States of America
!!!ENC: David Huron
!!!RDT: August 16, 2000
!!!EEV: Release 1.0
!!!AIN: tom, vox
